X:1
T:Title
%%score { ( 1 3 ) | ( 2 4 ) }
L:1/8
M:6/8
K:Eb
V:1 treble nm="Grand Piano"
V:3 treble 
V:2 bass 
V:4 bass 
V:1
 z3 z2[Q:1/4=83] [EG]/[FA]/ | [GB][_G=A][=GB] [Ge][Bd][_Ac] | [GB]EF G2 B | [DB][DA][DF] D2 B, | %4
 Ec=A B2 [GB]/[GB]/ | [GB][_G=A][=GB] [Ge][Bd][Ac] | [GB]=BB c2 c |[M:13/16] edcBG3/2E | %8
[M:5/8] [DF][Dc][DB] [G,E]2 |[M:12/8] z [Ad]2- [Ad]2 z z [Ac]2- [Ac] [GB]2 | z [EG]2- [EG]2 z z6 | %11
 z [Ad]2- [Ad]2 z z [Ac]2- [Ac] [GB]2 | z [EG]2- [EG]2 z z6 | z c2- c2 z z d2- d3 | z e2- e2 z z6 | %15
[M:13/8] z G2 z z z z z z z z z2 |[M:11/8] [EGB] A2- [Ac] [Ad]2 [Ad][Ge]- [Ge]3- | %17
 [Ge]2 z z z z z z z z2 |] %18
V:2
 z3 z2 [E,B,]/[E,B,]/ | [E,E][E,E][E,E] [E,B,][E,E][E,E] | [E,E][E,G,][E,A,E] [E,B,E]2 [E,G,E] | %3
 [B,,F,][B,,F,][B,,F,] [B,,F,B,]2 [B,,A,] | [E,G,B,][E,A,E][E,_G,E] [E,=G,E]2 [E,E]/[E,E]/ | %5
 [E,E][E,E][E,E] [E,B,][E,E][E,E] | [E,E][K:treble][G,DF][G,DF] [CE]2 [CE] | %7
[M:13/16] [A,CE][K:bass][A,B,E][A,E][E,G,E][E,B,E]3/2[C,=A,] |[M:5/8] [B,,A,][B,,A,][B,,A,] E,2 | %9
[M:12/8] .E,3[K:treble][K:bass] z3 z6 | B,,E,E, E,E,[E,CE] [E,A,E] [E,G,E]2- [E,G,E]3 | %11
 .E,3[K:treble][K:bass] z3 z6 | B,, E,2 E,E,[E,CE] [E,A,E] [E,G,E]2- [E,G,E]3 | %13
 [E,G,E] E2- E z[K:treble] F [F,=A,F] F2- F [G,=B,]2 | %14
 [G,=B,G] G2- G[A,C][A,EA] [A,EA][K:bass] E,2- E,3 |[M:13/8] .E,3 F [A,,F,]2 [A,,A,] G,2 B, E,3 | %16
[M:11/8] .E,2 z C [B,,B,]2 [B,,B,][E,B,]- [E,B,]3- | [E,B,]2 z z z z z z z z2 |] %18
V:3
 x6 | x6 | x6 | x6 | x6 | x6 | x6 |[M:13/16] x13/2 |[M:5/8] x5 | %9
[M:12/8] .[B,GB]2 B, B,B,[Ac] [AB]DD DB,B, | [B,FA]B,B, B,B,A c B2- B3 | %11
 .[B,GB]2 B, B,B,[Ac] [AB]DD DB,B, | [B,FA] B,2 B,B,A c B2- B3 | .B2 A, A,Fc .c2 B, B, G2 | %14
 .d3 CAd c [EGB]2- [EGB]3 |[M:13/8] [B,EG] [A,C]3 [CA]2 [CF] [B,E]2 [EG] [EGB]3 | %16
[M:11/8] z .[DB]3 z z z z z z2 | x11 |] %18
V:4
 x6 | x6 | x6 | x6 | x6 | x6 | x[K:treble] x5 |[M:13/16] x[K:bass] x11/2 |[M:5/8] x5 | %9
[M:12/8] z/[K:treble] e/[K:bass][B,,B,]B,, B,,B,,[B,,B,] [B,,B,]B,,B,, B,,B,,B,, | x12 | %11
 z/[K:treble] e/[K:bass][B,,B,]B,, B,,B,,[B,,B,] [B,,B,]B,,B,, B,,B,,B,, | x12 | %13
 z .A,2 z [F,=A,]2[K:treble] z .B,2 z3 | z C2 z3 z6[K:bass] |[M:13/8] z A,,3 z z2 E,3 z z2 | %16
[M:11/8] z B,,3 z z z z z z2 | x11 |] %18

